X:1
T:Title
%%score { ( 1 3 ) | ( 2 4 ) }
L:1/8
M:6/8
K:Bb
V:1 treble nm="Grand Piano"
V:3 treble 
V:2 bass 
V:4 bass 
V:1
 z3 z2[Q:1/4=84] [DB] | [DB]>[DB][DB] [DB][FA][EG] | [DF][B,D][CE] .[DF]2 [DF] | GGG G[FA][GB] | %4
[M:11/16] [DF][DB][Fd][Fc]3/2 z |[M:1/8] [EF] |[M:3/4] [DF]>[Fd] [Fd][Fd] [Ec][DB] | %7
 cB G[DF] z [DF] | [EG][GB] [Ge][Fd]- [Fd]/[Fc]/[FB] |[M:7/8] cBA [DB]3 z |[M:3/4] z2 z .[DB]3 | %11
 [B,DF]3 .[F,B,D]3 | B2 z [DF] Bd | c6 | [Fd]3 [DB] [Ec][Fd] | [Ge]3 .G3 | .F2 z F GA | B6 |] %18
V:2
 z3 z2 [B,,F,] | [B,,F,]>[B,,F,][B,,F,] [B,,B,][B,,B,][B,,B,] | %2
 [B,,B,][B,,F,][B,,B,] .[B,,B,]2 [B,,B,] | [E,B,E][E,B,E][E,B,E] [E,B,E][E,B,][E,B,] | %4
[M:11/16] [B,,B,][B,,F,][B,,B,][F,A,]3/2 z |[M:1/8] [F,A,] | %6
[M:3/4] [B,,B,]>[B,,B,] [B,,B,][B,,B,] [B,,F,][B,,F,] | [E,G,E][E,G,E] [E,B,E][B,,B,] z [B,,B,] | %8
 [E,B,][E,B,] [E,B,][F,B,]- [F,B,]/[F,A,]/[D,B,] |[M:7/8] [E,G,E][F,B,D][F,CE] [B,,B,]3 z | %10
[M:3/4] [B,,B,]3 [B,,B,] B,,B,, | B,,3 .B,,3 | D2 z2[K:treble] DF | F-[F,F-] [F,F-] [F,F]3 | %14
 [B,,B,]3 [B,,B,] [B,,B,][B,,B,] | [E,B,]3 .[E,B,E]3 | z2 z .[A,E]3 | .F,2 z2 z2 |] %18
V:3
 x6 | x6 | x6 | x6 |[M:11/16] x11/2 |[M:1/8] x |[M:3/4] x6 | x6 | x6 |[M:7/8] x7 | %10
[M:3/4] [Fd]4 B,B, | x6 | x6 | z A, A, .A,3 | x6 | x6 | x6 | DE E D3 |] %18
V:4
 x6 | x6 | x6 | x6 |[M:11/16] x11/2 |[M:1/8] x |[M:3/4] x6 | x6 | x6 |[M:7/8] x7 |[M:3/4] x6 | x6 | %12
 z2 z [B,,B,]3[K:treble] | .[F,A,]2 z2 z2 | x6 | x6 | .F,2 z F, F,F, | %17
 B,,-[B,,-G,] [B,,-G,] [B,,F,]3 |] %18

